static/img/googleplus.svg

<?xml version="1.0" encoding="UTF-8" standalone="no"?>
<!-- Generator: Adobe Illustrator 16.0.3, SVG Export Plug-In . SVG Version: 6.00 Build 0)  -->

<svg
   xmlns:dc="http://purl.org/dc/elements/1.1/"
   xmlns:cc="http://creativecommons.org/ns#"
   xmlns:rdf="http://www.w3.org/1999/02/22-rdf-syntax-ns#"
   xmlns:svg="http://www.w3.org/2000/svg"
   xmlns="http://www.w3.org/2000/svg"
   xmlns:sodipodi="http://sodipodi.sourceforge.net/DTD/sodipodi-0.dtd"
   xmlns:inkscape="http://www.inkscape.org/namespaces/inkscape"
   version="1.1"
   id="Google_x2B_"
   x="0px"
   y="0px"
   width="90"
   height="90"
   viewBox="0 0 90.000003 90"
   enable-background="new 0 0 266.667 267"
   xml:space="preserve"
   inkscape:version="0.48+devel r12585"
   sodipodi:docname="googleplus-symbolic.svg"><metadata
     id="metadata24"><rdf:RDF><cc:Work
         rdf:about=""><dc:format>image/svg+xml</dc:format><dc:type
           rdf:resource="http://purl.org/dc/dcmitype/StillImage" /><dc:title></dc:title></cc:Work></rdf:RDF></metadata><defs
     id="defs22" /><sodipodi:namedview
     pagecolor="#808080"
     bordercolor="#666666"
     borderopacity="1"
     objecttolerance="10"
     gridtolerance="10"
     guidetolerance="10"
     inkscape:pageopacity="0"
     inkscape:pageshadow="2"
     inkscape:window-width="640"
     inkscape:window-height="480"
     id="namedview20"
     showgrid="false"
     inkscape:zoom="5.0214782"
     inkscape:cx="35.94559"
     inkscape:cy="28.504575"
     inkscape:current-layer="Google_x2B_" /><g
     id="g3"
     xml:space="preserve"
     transform="translate(0,-177.00001)"><linearGradient
       id="SVGID_1_"
       gradientUnits="userSpaceOnUse"
       x1="-402.66751"
       y1="-20.6665"
       x2="-402.66751"
       y2="55.3335"
       gradientTransform="matrix(1,0,0,-1,244,322)"
       xml:space="preserve"><stop
         offset="0"
         style="stop-color:#7D2617"
         id="stop6" /><stop
         offset="1"
         style="stop-color:#BF3B27"
         id="stop8" /></linearGradient><path
       display="none"
       d="m -125.667,342.667 -65.289,0 c -2.979,0 -5.711,-2.748 -5.711,-5.726 l 0,-64.777 c 0,-2.979 2.732,-5.497 5.711,-5.497 l 64.736,0 c 2.98,0 5.553,2.521 5.553,5.497 l 0,65.503 c 0,2.977 -2.02,5 -5,5 z m -65.289,-75 c -2.752,0 -4.711,1.745 -4.711,4.497 l 0,64.777 c 0,2.753 1.959,4.726 4.711,4.726 l 64.289,0 c 3,0 5,-2 5,-5 l 0,-64.503 c 0,-2.752 -1.798,-4.497 -4.553,-4.497 l -64.736,0 0,0 z"
       id="path10"
       inkscape:connector-curvature="0"
       xml:space="preserve"
       style="fill:url(#SVGID_1_);display:none" /></g><path
     style="fill:#808080;fill-opacity:1"
     d="M 36 6 C 11.647713 6 6.8339176 6.0470193 6.1210938 19.253906 C 6.3603757 19.028533 6.611254 18.794305 6.8535156 18.585938 C 13.333725 13.221694 20.444661 12.325571 26.40625 12.214844 L 50.431641 12.214844 L 44.050781 17.365234 L 37.083984 17.365234 C 39.874897 19.784755 44.039063 24.110152 44.039062 31.816406 C 44.039062 40.257646 39.589469 44.258268 34.814453 48.017578 C 33.336998 49.49772 31.632813 51.099493 31.632812 53.613281 C 31.632812 56.120186 33.338017 57.48872 34.585938 58.517578 L 38.681641 61.705078 C 43.681701 65.928841 50.216797 70.819219 50.216797 78.693359 C 50.216797 80.675712 50.003756 82.461563 49.410156 84 L 54 84 C 81 84 84 84 84 66 L 84 32.683594 L 69.783203 32.683594 L 69.783203 47.226562 L 63.603516 47.226562 L 63.603516 32.683594 L 49.1875 32.683594 L 49.1875 26.632812 L 63.603516 26.632812 L 63.603516 12.214844 L 69.783203 12.214844 L 69.783203 26.632812 L 84 26.632812 L 84 24 C 84 6.0000003 81 6 54 6 L 45 6 L 36 6 z M 20.576172 16.072266 C 17.617374 16.072266 14.439389 17.55603 12.617188 19.837891 C 10.684258 22.235267 10.384766 25.310648 10.384766 28.283203 C 10.384766 35.923921 14.398311 47.226563 24.175781 47.226562 C 27.015773 47.226562 29.929798 46.505278 31.800781 44.373047 C 33.933618 41.929286 34.769531 38.711441 34.769531 37.066406 C 34.769531 28.850511 30.006801 16.072266 20.576172 16.072266 z M 6 47.275391 L 6 66 C 6 66.488979 6.0127294 66.91418 6.0175781 67.376953 C 11.178251 63.328025 20.035938 64.055453 24.359375 63.763672 C 22.765209 61.706256 20.949219 59.54148 20.949219 56.007812 C 20.949219 54.067708 21.516584 52.925299 22.083984 51.554688 C 20.831276 51.66631 19.586854 51.783203 18.447266 51.783203 C 13.322147 51.783203 9.1106496 49.840597 6 47.275391 z M 25.615234 66.957031 C 24.58757 66.957031 18.447349 67.186207 13.673828 68.785156 C 12.123971 69.351666 8.7121264 70.675084 6.359375 73.5 C 7.6681932 83.95983 13.468966 84 36 84 L 42.75 84 C 42.920299 83.56514 43.132812 83.166452 43.123047 82.240234 C 43.058707 76.410343 36.865171 73.23974 28.220703 67.076172 C 27.314539 66.957964 26.745545 66.957031 25.615234 66.957031 z "
     transform="translate(0,-1.5e-6)"
     id="path14" /></svg>

<svg xmlns="http://www.w3.org/2000/svg" width="90" height="90" viewBox="0 0 90.000003 90" enable-background="new 0 0 266.667 267"><linearGradient gradientUnits="userSpaceOnUse" x1="-402.668" y1="-20.666" x2="-402.668" y2="55.334" gradientTransform="matrix(1 0 0 -1 244 322)" transform="translate(0 -177)"><stop offset="0" stop-color="#7D2617"/><stop offset="1" stop-color="#BF3B27"/></linearGradient><path d="M36 6C11.648 6 6.834 6.047 6.12 19.254c.24-.225.49-.46.734-.668 6.48-5.364 13.59-6.26 19.552-6.37h24.026l-6.38 5.15h-6.968c2.79 2.42 6.955 6.744 6.955 14.45 0 8.442-4.45 12.442-9.227 16.202-1.477 1.48-3.18 3.08-3.18 5.595 0 2.507 1.704 3.876 2.952 4.905l4.096 3.187c5 4.224 11.536 9.114 11.536 16.988 0 1.983-.213 3.77-.807 5.307H54c27 0 30 0 30-18V32.684H69.783v14.543h-6.18V32.684H49.188v-6.05h14.417v-14.42h6.18v14.42H84V24C84 6 81 6 54 6H36zM20.576 16.072c-2.96 0-6.137 1.484-7.96 3.766-1.932 2.397-2.23 5.473-2.23 8.445 0 7.64 4.012 18.944 13.79 18.944 2.84 0 5.754-.722 7.625-2.854 2.135-2.444 2.97-5.662 2.97-7.307 0-8.215-4.762-20.994-14.193-20.994zM6 47.275V66c0 .49.013.914.018 1.377 5.16-4.05 14.018-3.322 18.34-3.613-1.593-2.058-3.41-4.223-3.41-7.756 0-1.94.57-3.083 1.136-4.453-1.253.11-2.497.228-3.637.228-5.125 0-9.336-1.942-12.447-4.508zm19.615 19.682c-1.027 0-7.168.23-11.94 1.828-1.55.567-4.963 1.89-7.316 4.715C7.666 83.96 13.47 84 36 84h6.75c.17-.435.383-.834.373-1.76-.064-5.83-6.258-9-14.902-15.164-.904-.118-1.473-.12-2.604-.12z" fill="#808080"/></svg>
